X:38
T:Battle of the Somme, The
R:march
C:William Laurie (1881-1916), Scotland
O:Scottish
Z:id:hn-march-38
M:9/8
L:1/8
K:D
A | f<af d3 d>cd | e>dG B3 A3 | B<GB A3 d3 | f<af e3 e2A |
f<af d3 d>cd | e>dG B3 A3 | B<GB A3 f3 |1 e>fe d3 d2A :|2 efe d3 d3 ||
|: d>cd e3 A3 | e>fg f<af d2d | f>ef g3 A3 | f<af e3 e2A |
f<af d3 d>cd | e>dG B3 A3 | B<GB A3 f3 |1 e>fe d3 d3 :|2 efe d3 d2 ||

